X: 26601
T: Mick O'Connor's
R: reel
M: 4/4
K: Dmajor
|:ABde fded|Beed efdB|ABde faba|dBAF EFDB|
A3g fded|Beed efdB|ABde faba|1 dBAF EDDB:|2 dBAF EDD2||
|:D3F AFFA|EDBD EDBA|DEFA DEFA|EADE FDD2|
D3F AFFA|EDBD EDBD|F3A (3BAF AF|1 EADE FDD2:|2 EADE FDDB||

